src/icons/share.svg

<svg width="20" height="21" viewBox="0 0 20 21" fill="none" xmlns="http://www.w3.org/2000/svg">
<path d="M16.25 12.75C17.3177 12.75 18.2031 13.1146 18.9062 13.8438C19.6354 14.5469 20 15.4323 20 16.5C20 17.5677 19.6354 18.4531 18.9062 19.1562C18.2031 19.8854 17.3177 20.25 16.25 20.25C15.1823 20.25 14.2839 19.8854 13.5547 19.1562C12.8516 18.4271 12.5 17.5417 12.5 16.5L12.5391 16.1094L6.32812 13.0234C5.59896 13.6745 4.7526 14 3.78906 14C3.32031 14 2.85156 13.9219 2.38281 13.7656C1.9401 13.5833 1.53646 13.3359 1.17188 13.0234C0.833333 12.6849 0.546875 12.2812 0.3125 11.8125C0.104167 11.3438 0 10.8229 0 10.25C0 9.67708 0.104167 9.15625 0.3125 8.6875C0.546875 8.21875 0.833333 7.82812 1.17188 7.51562C1.53646 7.17708 1.9401 6.92969 2.38281 6.77344C2.85156 6.59115 3.32031 6.5 3.78906 6.5C4.72656 6.5 5.5599 6.82552 6.28906 7.47656L12.5 4.35156V4C12.5 2.95833 12.8516 2.07292 13.5547 1.34375C14.2578 0.614583 15.1562 0.25 16.25 0.25C17.3177 0.25 18.2031 0.614583 18.9062 1.34375C19.6354 2.04688 20 2.93229 20 4C20 5.06771 19.6354 5.96615 18.9062 6.69531C18.2031 7.39844 17.3177 7.75 16.25 7.75C15 7.75 13.9844 7.24219 13.2031 6.22656L7.34375 9.19531C7.44792 9.48177 7.5 9.83333 7.5 10.25C7.5 10.6406 7.44792 10.9922 7.34375 11.3047L13.2422 14.2344C13.9974 13.2448 15 12.75 16.25 12.75ZM16.25 2.24219C15.7552 2.24219 15.3385 2.41146 15 2.75C14.6615 3.0625 14.4922 3.47917 14.4922 4C14.4922 4.49479 14.6615 4.91146 15 5.25C15.3385 5.58854 15.7552 5.75781 16.25 5.75781C16.7708 5.75781 17.1875 5.58854 17.5 5.25C17.8385 4.91146 18.0078 4.49479 18.0078 4C18.0078 3.47917 17.8385 3.0625 17.5 2.75C17.1875 2.41146 16.7708 2.24219 16.25 2.24219ZM3.75 12.0078C4.27083 12.0078 4.6875 11.8516 5 11.5391C5.33854 11.2005 5.50781 10.7708 5.50781 10.25C5.50781 9.72917 5.33854 9.3125 5 9C4.6875 8.66146 4.27083 8.49219 3.75 8.49219C3.22917 8.49219 2.79948 8.66146 2.46094 9C2.14844 9.3125 1.99219 9.72917 1.99219 10.25C1.99219 10.7708 2.14844 11.2005 2.46094 11.5391C2.79948 11.8516 3.22917 12.0078 3.75 12.0078ZM16.25 18.2578C16.7708 18.2578 17.1875 18.0885 17.5 17.75C17.8385 17.4115 18.0078 16.9948 18.0078 16.5C18.0078 15.9792 17.8385 15.5625 17.5 15.25C17.1875 14.9115 16.7708 14.7422 16.25 14.7422C15.7552 14.7422 15.3385 14.9115 15 15.25C14.6615 15.5625 14.4922 15.9792 14.4922 16.5C14.4922 16.9948 14.6615 17.4115 15 17.75C15.3385 18.0885 15.7552 18.2578 16.25 18.2578Z"/>
</svg>

<svg width="20" height="21"><path d="M16.25 12.75c1.068 0 1.953.365 2.656 1.094.73.703 1.094 1.588 1.094 2.656s-.365 1.953-1.094 2.656c-.703.73-1.588 1.094-2.656 1.094s-1.966-.365-2.695-1.094c-.703-.729-1.055-1.614-1.055-2.656l.04-.39-6.212-3.087A3.695 3.695 0 0 1 3.79 14c-.469 0-.937-.078-1.406-.234a4.457 4.457 0 0 1-1.211-.743 4.612 4.612 0 0 1-.86-1.21A3.805 3.805 0 0 1 0 10.25c0-.573.104-1.094.313-1.563.234-.468.52-.859.859-1.171a3.462 3.462 0 0 1 1.21-.743A3.855 3.855 0 0 1 3.79 6.5c.938 0 1.77.326 2.5.977L12.5 4.352V4c0-1.042.352-1.927 1.055-2.656C14.258.614 15.156.25 16.25.25c1.068 0 1.953.365 2.656 1.094C19.636 2.047 20 2.932 20 4s-.365 1.966-1.094 2.695c-.703.703-1.588 1.055-2.656 1.055-1.25 0-2.266-.508-3.047-1.523l-5.86 2.968c.105.287.157.638.157 1.055 0 .39-.052.742-.156 1.055l5.898 2.93c.755-.99 1.758-1.485 3.008-1.485Zm0-10.508c-.495 0-.912.17-1.25.508-.338.313-.508.73-.508 1.25 0 .495.17.911.508 1.25.338.339.755.508 1.25.508.52 0 .938-.17 1.25-.508.338-.339.508-.755.508-1.25 0-.52-.17-.938-.508-1.25-.313-.339-.73-.508-1.25-.508Zm-12.5 9.766c.52 0 .938-.156 1.25-.469.339-.338.508-.768.508-1.289 0-.52-.17-.938-.508-1.25-.313-.339-.73-.508-1.25-.508s-.95.17-1.29.508c-.312.313-.468.73-.468 1.25s.156.95.469 1.29c.338.312.768.468 1.289.468Zm12.5 6.25c.52 0 .938-.17 1.25-.508.338-.338.508-.755.508-1.25 0-.52-.17-.938-.508-1.25-.313-.338-.73-.508-1.25-.508-.495 0-.912.17-1.25.508-.338.313-.508.73-.508 1.25 0 .495.17.912.508 1.25.338.338.755.508 1.25.508Z"/></svg>
